components/Common/Svg/svgs/rise.svg

<svg width="40" height="40" viewBox="0 0 40 40" fill="none" xmlns="http://www.w3.org/2000/svg">
<path d="M26 13C25.4477 13 25 13.4477 25 14C25 14.5523 25.4477 15 26 15H29.6646L22.3224 23.2966L17.4475 17.6211C17.2658 17.4097 17.0042 17.2836 16.7256 17.2734C16.4471 17.2632 16.1769 17.3696 15.9802 17.5672L7.29134 26.2945C6.90167 26.6858 6.90307 27.319 7.29445 27.7087C7.68584 28.0983 8.319 28.0969 8.70866 27.7055L16.6348 19.7444L21.5525 25.4698C21.7408 25.689 22.0147 25.816 22.3037 25.8182C22.5927 25.8203 22.8685 25.6973 23.06 25.4809L31 16.5089V20C31 20.5523 31.4477 21 32 21C32.5523 21 33 20.5523 33 20V15C33 13.8954 32.1046 13 31 13H26Z" fill="#161616"/>
<path fill-rule="evenodd" clip-rule="evenodd" d="M3 9C3 5.68629 5.68629 3 9 3H31C34.3137 3 37 5.68629 37 9V31C37 34.3137 34.3137 37 31 37H9C5.68629 37 3 34.3137 3 31V9ZM9 5H31C33.2091 5 35 6.79086 35 9V31C35 33.2091 33.2091 35 31 35H9C6.79086 35 5 33.2091 5 31V9C5 6.79086 6.79086 5 9 5Z" fill="#161616"/>
</svg>

<svg width="40" height="40" viewBox="0 0 40 40" fill="none" xmlns="http://www.w3.org/2000/svg"><path d="M26 13a1 1 0 1 0 0 2h3.665l-7.343 8.297-4.874-5.676a1 1 0 0 0-1.468-.054l-8.689 8.727a1 1 0 1 0 1.418 1.412l7.926-7.962 4.917 5.726a1 1 0 0 0 1.508.01L31 16.51V20a1 1 0 1 0 2 0v-5a2 2 0 0 0-2-2h-5Z" fill="#161616"/><path fill-rule="evenodd" clip-rule="evenodd" d="M3 9a6 6 0 0 1 6-6h22a6 6 0 0 1 6 6v22a6 6 0 0 1-6 6H9a6 6 0 0 1-6-6V9Zm6-4h22a4 4 0 0 1 4 4v22a4 4 0 0 1-4 4H9a4 4 0 0 1-4-4V9a4 4 0 0 1 4-4Z" fill="#161616"/></svg>
